X:17106
T:The Piper on Horseback
M:4/4
L:1/8
S:Dianna Boullier, Bangor (fiddle)
R:Reel
D:Radio Na Gaeltachta
N:As played
Z:Bernie Stocks
K:D
AEA2F2d cAAB | cAdB cAGE | AEA2F2d cAAB | {c}BAGE {G}EDCE :|
defg afdf | efed cAEA | defg afdB | (3.A.A.AGE {G}EDDA |
defg g-aaf | efed cAAEe | azag efed | cAGE {G}EDCE ||
